static/logos/heroku-wordmark-color.svg

<svg width="100" height="28" viewBox="0 0 100 28" fill="none" xmlns="http://www.w3.org/2000/svg">
<g clip-path="url(#clip0_1_2463)">
<path d="M22.5874 0H2.51748C1.11888 0 0 1.11888 0 2.51748V25.4545C0 26.8531 1.11888 27.972 2.51748 27.972H22.5874C23.986 27.972 25.1049 26.8531 25.1049 25.4545V2.51748C25.1049 1.11888 23.986 0 22.5874 0ZM23.7063 25.4545C23.7063 26.0839 23.2168 26.5734 22.5874 26.5734H2.51748C1.88811 26.5734 1.3986 26.0839 1.3986 25.4545V2.51748C1.3986 1.88811 1.88811 1.3986 2.51748 1.3986H22.5874C23.2168 1.3986 23.7063 1.88811 23.7063 2.51748V25.4545ZM6.29371 23.7762L9.44056 20.979L6.29371 18.1818V23.7762ZM17.6224 12.4476C17.0629 11.8881 16.014 11.1888 14.2657 11.1888C12.3776 11.1888 10.4196 11.6783 9.02098 12.1678V4.1958H6.22378V16.2937L8.18182 15.3846C8.18182 15.3846 11.3986 13.9161 14.1958 13.9161C15.5944 13.9161 15.9441 14.6853 15.9441 15.3846V23.7762H18.7413V15.3846C18.8112 15.1748 18.8112 13.6364 17.6224 12.4476ZM13.9161 8.74126H16.7133C17.972 7.27273 18.6014 5.8042 18.8112 4.1958H16.014C15.7343 5.8042 15.035 7.27273 13.9161 8.74126ZM91.1888 15.3147V9.16084H93.986V15.3147C93.986 16.7133 94.4755 17.4126 95.5944 17.4126C96.7133 17.4126 97.1329 16.7832 97.1329 15.3147V9.16084H99.8601V15.3846C99.8601 18.1119 98.5315 19.7203 95.5245 19.7203C92.5175 19.6504 91.1888 18.042 91.1888 15.3147ZM79.4406 9.16084H82.2378V12.9371L85.1049 9.16084H88.3217L84.8252 13.2168L88.6014 19.5105H85.4545L83.007 15.3846L82.2378 16.2937V19.5105H79.4406V9.16084ZM66.1538 14.2657C66.1538 10.4895 68.7413 8.88112 71.2587 8.88112C73.7762 8.88112 76.3636 10.4895 76.3636 14.2657C76.3636 18.042 73.7762 19.6504 71.2587 19.6504C68.7413 19.6504 66.1538 18.1119 66.1538 14.2657ZM73.4965 14.2657C73.4965 12.3776 72.6573 11.1888 71.1888 11.1888C69.7203 11.1888 68.8811 12.3776 68.8811 14.2657C68.8811 16.1538 69.7203 17.4126 71.1888 17.4126C72.6573 17.4126 73.4965 16.2238 73.4965 14.2657ZM54.8951 9.16084H58.9511C61.6084 9.16084 63.2168 10.0699 63.2168 12.5175C63.2168 14.1259 62.5175 15.1049 61.1888 15.5245L63.3566 19.5105H60.4196L58.3916 15.9441H57.6224V19.5105H54.8951V9.16084ZM58.8811 13.7762C60 13.7762 60.5594 13.4266 60.5594 12.5874C60.5594 11.7483 60.0699 11.3986 58.8811 11.3986H57.6923V13.7762H58.8811ZM44.1958 9.16084H51.6084V11.4685H46.993V13.1469H50.2797V15.3147H46.993V17.2028H51.8182V19.4406H44.1958V9.16084ZM31.5385 9.16084H34.3357V13.007H37.7622V9.16084H40.5594V19.5105H37.7622V15.3147H34.3357V19.5105H31.5385V9.16084Z" fill="#430098"/>
</g>
<defs>
<clipPath id="clip0_1_2463">
<rect width="100" height="27.972" fill="white"/>
</clipPath>
</defs>
</svg>

<svg xmlns="http://www.w3.org/2000/svg" width="228.571" height="64" fill="none" viewBox="0 0 100 28"><g clip-path="url(#a)"><path fill="#430098" d="M22.587 0H2.517A2.507 2.507 0 0 0 0 2.517v22.938a2.507 2.507 0 0 0 2.517 2.517h20.07a2.507 2.507 0 0 0 2.518-2.518V2.517A2.507 2.507 0 0 0 22.587 0Zm1.12 25.454c0 .63-.49 1.12-1.12 1.12H2.517c-.629 0-1.118-.49-1.118-1.12V2.517c0-.629.49-1.118 1.118-1.118h20.07c.63 0 1.12.49 1.12 1.118v22.938ZM6.293 23.776 9.44 20.98l-3.147-2.797v5.594Zm11.328-11.328c-.56-.56-1.608-1.26-3.356-1.26-1.888 0-3.846.49-5.245.98V4.196H6.224v12.098l1.958-.91s3.217-1.468 6.014-1.468c1.398 0 1.748.77 1.748 1.469v8.391h2.797v-8.391c.07-.21.07-1.749-1.119-2.937ZM13.916 8.74h2.797c1.259-1.468 1.888-2.937 2.098-4.545h-2.797c-.28 1.608-.979 3.077-2.098 4.545Zm77.273 6.574V9.16h2.797v6.154c0 1.398.49 2.098 1.608 2.098 1.12 0 1.539-.63 1.539-2.098V9.16h2.727v6.224c0 2.727-1.329 4.335-4.335 4.335-3.008-.07-4.336-1.678-4.336-4.405ZM79.44 9.16h2.797v3.776l2.867-3.776h3.217l-3.497 4.056 3.776 6.293h-3.147l-2.447-4.125-.77.909v3.216h-2.796V9.16Zm-13.287 5.105c0-3.777 2.587-5.385 5.105-5.385 2.517 0 5.105 1.608 5.105 5.385 0 3.776-2.588 5.384-5.105 5.384-2.518 0-5.105-1.538-5.105-5.384Zm7.343 0c0-1.888-.84-3.077-2.308-3.077-1.469 0-2.308 1.189-2.308 3.077s.84 3.147 2.308 3.147 2.308-1.19 2.308-3.147ZM54.894 9.16h4.056c2.657 0 4.266.909 4.266 3.357 0 1.608-.7 2.587-2.028 3.006l2.168 3.987H60.42l-2.028-3.567h-.77v3.566h-2.727V9.16Zm3.986 4.615c1.119 0 1.678-.35 1.678-1.189 0-.839-.49-1.188-1.678-1.188h-1.189v2.377h1.19ZM44.196 9.161h7.412v2.308h-4.615v1.678h3.287v2.168h-3.287v1.888h4.825v2.238h-7.622V9.16Zm-12.657 0h2.797v3.846h3.426V9.161h2.797v10.35h-2.797v-4.196h-3.426v4.196h-2.797V9.16Z"/></g><defs><clipPath id="a"><path fill="#fff" d="M0 0h100v27.972H0z"/></clipPath></defs></svg>
